assets/crown.svg

<svg width="50" height="50" viewBox="0 0 50 50" fill="none" xmlns="http://www.w3.org/2000/svg">
<path d="M41.8752 11.8545C45.1252 9.52116 46.6877 10.7087 45.3543 14.4795L36.9377 38.042C36.646 38.8753 35.6668 39.5628 34.7918 39.5628H15.2085C14.3335 39.5628 13.3543 38.8753 13.0627 38.042L4.43767 13.8962C3.2085 10.4378 4.646 9.37533 7.60434 11.5003L15.7293 17.3128C17.0835 18.2503 18.6252 17.7712 19.2085 16.2503L22.8752 6.47949C24.0418 3.35449 25.9793 3.35449 27.146 6.47949L30.8127 16.2503C31.396 17.7712 32.9377 18.2503 34.271 17.3128L35.5835 16.3753" stroke="#292D32" stroke-width="3" stroke-linecap="round" stroke-linejoin="round"/>
<path d="M13.5415 45.8335H36.4582" stroke="#292D32" stroke-width="3" stroke-linecap="round" stroke-linejoin="round"/>
<path d="M19.7915 29.1665H30.2082" stroke="#292D32" stroke-width="3" stroke-linecap="round" stroke-linejoin="round"/>
</svg>

<svg xmlns="http://www.w3.org/2000/svg" width="50" height="50" fill="none" stroke="#292d32" stroke-width="3" stroke-linecap="round" stroke-linejoin="round" xmlns:v="https://vecta.io/nano"><path d="M41.875 11.855c3.25-2.333 4.813-1.146 3.479 2.625l-8.417 23.563c-.292.833-1.271 1.521-2.146 1.521H15.209c-.875 0-1.854-.687-2.146-1.521L4.438 13.896c-1.229-3.458.208-4.521 3.167-2.396l8.125 5.813c1.354.938 2.896.458 3.479-1.062l3.667-9.771c1.167-3.125 3.104-3.125 4.271 0l3.667 9.771c.583 1.521 2.125 2 3.458 1.063l1.313-.937M13.542 45.834h22.917M19.792 29.167h10.417"/></svg>
